logo/flattr.svg

<?xml version="1.0" encoding="UTF-8" standalone="no"?>
<svg width="256px" height="257px" viewBox="0 0 256 257" version="1.1" xmlns="http://www.w3.org/2000/svg" xmlns:xlink="http://www.w3.org/1999/xlink" preserveAspectRatio="xMidYMid">
    <defs>
        <linearGradient x1="50.000371%" y1="2.10915516e-14%" x2="50.000371%" y2="99.9970316%" id="linearGradient-1">
            <stop stop-color="#EA5F29" offset="0%"></stop>
            <stop stop-color="#FABD1F" offset="100%"></stop>
        </linearGradient>
        <linearGradient x1="49.9966606%" y1="99.9985158%" x2="49.9966606%" y2="0.000742098506%" id="linearGradient-2">
            <stop stop-color="#ABD33C" offset="0%"></stop>
            <stop stop-color="#6CB02F" offset="100%"></stop>
        </linearGradient>
    </defs>
	<g>
		<path d="M91.7941754,237.859248 C31.0187494,237.859248 -2.84217094e-14,202.798335 -2.84217094e-14,137.336471 L-2.84217094e-14,137.336471 L-2.84217094e-14,91.608836 L-2.84217094e-14,-5.68434189e-14 L59.5345348,59.691632 L59.5345348,129.455135 C59.5345348,156.574697 66.709816,173.83244 90.7809869,177.706915 L90.7809869,177.706915 C99.1900987,179.353788 116.69143,178.776588 127.818853,178.776588 L127.818853,178.776588 L127.818853,137.354122 C127.818853,136.976383 127.870042,136.3021 127.967124,135.956134 L127.967124,135.956134 C128.43312,134.279254 129.947608,133.050718 131.740987,133.047188 L131.740987,133.047188 C132.755941,133.045423 133.705584,133.573199 134.685235,134.540494 L134.685235,134.540494 L237.857482,237.843361 L168.604104,237.859248 L91.7941754,237.859248 L91.7941754,237.859248 Z" fill="url(#linearGradient-1)" transform="translate(118.928741, 118.929624) scale(1, -1) translate(-118.928741, -118.929624) "></path>
		<path d="M196.200253,196.452668 L196.200253,126.69093 C196.200253,99.571368 189.023207,82.3118601 164.953801,78.4373848 L164.953801,78.4373848 C156.544689,76.7922773 139.043358,77.369477 127.915935,77.369477 L127.915935,77.369477 L127.915935,118.790178 C127.915935,119.166152 127.864746,119.842199 127.767664,120.188166 L127.767664,120.188166 C127.301668,121.866811 125.788945,123.093581 123.993801,123.097112 L123.993801,123.097112 C122.978847,123.100642 122.029204,122.571101 121.049553,121.605571 L121.049553,121.605571 L17.8773055,18.3027035 L87.1306837,18.2868172 L163.940613,18.2868172 C224.716039,18.2868172 255.734788,53.34773 255.734788,118.807829 L255.734788,118.807829 L255.734788,164.537229 L255.734788,256.1443 L196.200253,196.452668 L196.200253,196.452668 Z" fill="url(#linearGradient-2)" transform="translate(136.806047, 137.215558) scale(1, -1) translate(-136.806047, -137.215558) "></path>
	</g>
</svg>

<svg viewBox="0 0 256 257" xmlns="http://www.w3.org/2000/svg"><defs><linearGradient id="a" x1="50%" x2="50%" y1="0%" y2="99.997%"><stop offset="0%" stop-color="#EA5F29"/><stop offset="100%" stop-color="#FABD1F"/></linearGradient><linearGradient id="b" x1="49.996%" x2="49.996%" y1="99.998%" y2="0%"><stop offset="0%" stop-color="#ABD33C"/><stop offset="100%" stop-color="#6CB02F"/></linearGradient></defs><path fill="url(#a)" d="M91.79 237.85c-60.78 0-91.8-35.07-91.8-100.53v0V91.59 -.02l59.53 59.69v69.76c0 27.11 7.17 44.37 31.24 48.25v0c8.4 1.64 25.91 1.06 37.03 1.06v0 -41.43c0-.38.05-1.06.14-1.4v0c.46-1.68 1.98-2.91 3.77-2.91v0c1.01-.01 1.96.52 2.94 1.49v0l103.17 103.3 -69.26.01H91.74v0Z" transform="matrix(1 0 0-1 0 237.859)"/><path fill="url(#b)" d="M196.2 196.45v-69.77c0-27.12-7.18-44.38-31.25-48.26v0c-8.41-1.65-25.92-1.07-37.04-1.07v0 41.42c0 .37-.06 1.05-.15 1.39v0c-.47 1.67-1.98 2.9-3.78 2.9v0c-1.02 0-1.97-.53-2.95-1.5v0L17.85 18.25l69.25-.02h76.8c60.77 0 91.79 35.06 91.79 100.52v0 45.72 91.6l-59.54-59.7v0Z" transform="matrix(1 0 0-1 0 274.431)"/></svg>
